X: 15
T:Connie O'Connell's
M:6/8
L:1/8
S:Dianna Boullier, Bangor, Down (fiddle)
R:Slide
D:Session tape - Bangor, Down 198?
N:As played
Z:Bernie Stocks
K:G
G2B dBd | e2f gag | f2e d2B | cBA ~B3 | G2B dBd | e2f (3gag e | d2B ABA | G3 G3 ::\
~B3 ABA | G3 GAB | ~c3 BdB | A2G {G}E2D | ~B3 ABA | G3 Gge | d2B ABA | G3 G3 :|
<end>
<start>
